src/images_karasa_jaga_svg/cmd/32/insertcaptiondialog.svg

<svg enable-background="new 0 0 128 128" height="128" viewBox="0 0 128 128" width="128" xmlns="http://www.w3.org/2000/svg" xmlns:xlink="http://www.w3.org/1999/xlink"><radialGradient id="a" cx="137.56522" cy="141.40741" gradientTransform="matrix(0 .88307133 -.9818182 0 126.85035 -4.998232)" gradientUnits="userSpaceOnUse" r="139.55859"><stop offset="0" stop-color="#cccdcf"/><stop offset=".11366145" stop-color="#e0e0e1"/><stop offset=".20296694" stop-color="#f2f2f2"/><stop offset=".2363" stop-color="#fafafa"/><stop offset=".2722" stop-color="#fff"/><stop offset=".5313" stop-color="#fafafa"/><stop offset=".8449" stop-color="#ebecec"/><stop offset="1" stop-color="#e1e2e3"/></radialGradient><radialGradient id="b" cx="102" cy="112.3047" gradientTransform="matrix(0 .90226854 -1 0 128.01399 -6.226854)" gradientUnits="userSpaceOnUse" r="139.5585"><stop offset="0" stop-color="#fff"/><stop offset=".1737" stop-color="#f7f7f7"/><stop offset=".20990001" stop-color="#f1f1f1"/><stop offset=".2435" stop-color="#fafcfd"/><stop offset=".2722" stop-color="#fff"/></radialGradient><filter id="c"><feGaussianBlur stdDeviation="1.0394514"/></filter><filter id="d"><feGaussianBlur stdDeviation=".50063244"/></filter><linearGradient id="e" gradientUnits="userSpaceOnUse" x1="42" x2="72.138878" y1="118.03125" y2="5.551427"><stop offset="0" stop-color="#084775"/><stop offset="1" stop-color="#084775" stop-opacity="0"/></linearGradient><linearGradient gradientUnits="userSpaceOnUse" x1="52.126926" x2="52.126926" y1="-30.36201" y2="-142.433416"><stop offset="0" stop-color="#403a3a"/><stop offset="1" stop-color="#6a5252"/></linearGradient><filter id="f"><feGaussianBlur stdDeviation="1.2346784"/></filter><clipPath id="g"><path d="m-23.029324-146.61201c-5.531616-.24083-10.64527 3.53552-12 8.96875-.000021.01042-.000021.02083 0 .03125l-2.8125 11.40625h-6.03125c-6.441349 0-11.84375 5.4024-11.84375 11.84375v8c0 5.84595 4.517586 10.626564 10.15625 11.5l-4.125 16.65625h-6.1875c-6.441349 0-11.84375 5.402402-11.84375 11.84375v8c0 5.890458 4.58168 10.71459 10.28125 11.53125l-.84375 3.4375c-1.553679 6.23113 2.382454 12.78725 8.625 14.34375l7.78125 1.9375c6.231123 1.55368 12.818494-2.3825 14.375-8.625.000021-.01042.000021-.02083 0-.03125l2.65625-10.75h14.65625l-.78125 3.125c-1.553681 6.23114 2.382455 12.78725 8.625 14.34375l7.78125 1.9375c6.213771 1.54936 12.804599-2.45209 14.34375-8.625.000021-.01042.000021-.02083 0-.03125l2.65625-10.75h9.6875c6.44135 0 11.84375-5.402396 11.84375-11.84375v-8c0-6.441353-5.4024-11.84375-11.84375-11.84375h-1.875l4.03125-16.3125h9.84375c6.44135 0 11.84375-5.402396 11.84375-11.84375v-8c0-6.44135-5.4024-11.84375-11.84375-11.84375h-2.03125l.9375-3.78125c1.55369-6.23115-2.3825-12.78724-8.625-14.34375l-7.78125-1.9375c-6.231121-1.55367-12.818487 2.38251-14.375 8.625-.000021.01042-.000021.02083 0 .03125l-2.8125 11.40625h-14.625l.9375-3.78125c1.571025-6.30072-2.431097-12.79157-8.65625-14.34375l-7.75-1.9375c-.677154-.16884-1.43324-.30275-2.375-.34375zm10.03125 52.09375h14.625l-4.03125 16.3125h-14.625z"/></clipPath><path d="m26.84 12.862069.04082 104.275861 84.02324.0272v-104.303031h-84.064056z" filter="url(#c)" opacity=".306849" transform="matrix(0 .93986309 -1.0357143 0 131.33552 -15.211946)"/><path d="m28.759999 14.793205v100.413795h80.224061v-100.413795z" filter="url(#d)" opacity=".89589" transform="matrix(0 .93986309 -1.0357143 0 131.33552 -15.211946)"/><path d="m26.84 13.827586.04082 103.310344 84.02324.0272v-103.337514h-84.064056z" filter="url(#c)" opacity=".698" transform="matrix(0 .93986309 -1.0357143 0 131.33552 -15.211946)"/><path d="m116.01399 11.818517h-104v75.399631h104z" fill="url(#b)" stroke-width=".949878"/><path d="m112.01399 16.310662c0-.486572-.44084-.883071-.98182-.883071h-94.03636c-.54197 0-.98182.396499-.98182.883071l-.0242 66.678761c0 .320883.33797.619651.69414.619651h94.34824c.54098 0 .98182-.395618.98182-.883068z" fill="url(#a)" stroke-width=".949878"/><path clip-path="url(#g)" d="m22.5 42.5-2.25 15.5 14-11.75zm21.75.5 12 14.625 11-.125 17.25-12.75zm50 2 9.25 12.375h6l4.5-11.375zm-83.5 46.75-2.25 13.375 14.5-10.875zm91 1.25-18 1 7.75 11.375 7.25-.5zm-31 .5-34.5.25 8.75 12.8125 10.3125-.9375z" fill="url(#e)" fill-rule="evenodd" filter="url(#f)" transform="matrix(0 .90226854 -1 0 197.85875 310.08844)"/><path clip-path="url(#g)" d="m22.5 42.5-8.662305 12.749263 6.412305 2.750737 14-11.75zm71.75 2.5 9.25 12.375 18.02082 1.06066-7.52082-12.43566zm-83.5 46.75-10.20495127 12.66789 22.45495127-10.16789zm91 1.25-18 1 7.75 11.375 17.14949.38388z" fill="url(#e)" fill-rule="evenodd" filter="url(#f)" opacity=".450495" transform="matrix(0 .90226854 -1 0 197.85875 310.08844)"/><image height="128" preserveAspectRatio="none" width="128" x="128" xlink:href="data:image/png;base64,iVBORw0KGgoAAAANSUhEUgAAABYAAAAWCAYAAADEtGw7AAAABHNCSVQICAgIfAhkiAAAAAlwSFlz
AAACYQAAAmEBwTBV+gAAABl0RVh0U29mdHdhcmUAd3d3Lmlua3NjYXBlLm9yZ5vuPBoAAAGiSURB
VDiN1ZM9rtNAFIW/e2MkXgkUlFkBElLWwhbYAnR0EU1WwA7o0yJRp0ehoYgUiQW8JLYnnkMxmcQe
54HECwUjXc2f57tnzh0bcDebzd5Pp9NXPLKZmTabzffVavUB4OV8Pt92XacQgkIIakNQ27Zq21ZN
26ppGjVNo7qudahrHQ4H7fd77XY73d9fIoSgxWLxE3haAUiyrus4Ho9IQmltEDHGwThH16Ue4MXz
Z1m8V71r4O5jcIwIwB3FSATcnSQITsOUuGfLdXCGA3InSniMRPfUn783wJAMM6NPHoBzDCwooe5Y
jLhZuoXAXUg2KKQXVR0lcTPMPfXFWlZt5if1DyiWdIaX2WOGxQhmWCGgPFf1J3nzWgI7wdwsJemB
3ZPP9I6MwBlawjOYrFAaqf6tx32fr+6VUSYuwSEEYoyj7AMf4RIjfx/wOL/hPizPIfk+mUzOa4M/
My0wqaoBeLdcLr9st9vX3KCt1+tvwNFORboDntwCDBwl7a1/3Vs2//Mnf9cqgDef+Gji3WNhn99e
nsa/VWziB/D1luD/r3i/ACvxHfUgHJUEAAAAAElFTkSuQmCC"/><path d="m12 104.12122h100v11.878788h-100z" fill="#59f" fill-opacity=".968627"/></svg>

<?xml version="1.0" encoding="UTF-8" standalone="no"?>
<svg
   xmlns:dc="http://purl.org/dc/elements/1.1/"
   xmlns:cc="http://creativecommons.org/ns#"
   xmlns:rdf="http://www.w3.org/1999/02/22-rdf-syntax-ns#"
   xmlns:svg="http://www.w3.org/2000/svg"
   xmlns="http://www.w3.org/2000/svg"
   xmlns:xlink="http://www.w3.org/1999/xlink"
   xmlns:sodipodi="http://sodipodi.sourceforge.net/DTD/sodipodi-0.dtd"
   xmlns:inkscape="http://www.inkscape.org/namespaces/inkscape"
   enable-background="new 0 0 128 128"
   height="128"
   viewBox="0 0 128 128"
   width="128"
   version="1.1"
   id="svg71"
   sodipodi:docname="insertcaptiondialog.svg"
   inkscape:version="0.92.3 (unknown)"
   inkscape:export-filename="/home/rizmut/Dokumen/Rizmut/Github/libreoffice-style-karasa-jaga/build/images_karasa_jaga/cmd/32/insertcaptiondialog.png"
   inkscape:export-xdpi="24"
   inkscape:export-ydpi="24">
  <metadata
     id="metadata77">
    <rdf:RDF>
      <cc:Work
         rdf:about="">
        <dc:format>image/svg+xml</dc:format>
        <dc:type
           rdf:resource="http://purl.org/dc/dcmitype/StillImage" />
        <dc:title></dc:title>
      </cc:Work>
    </rdf:RDF>
  </metadata>
  <defs
     id="defs75">
    <linearGradient
       inkscape:collect="always"
       xlink:href="#e"
       id="linearGradient886"
       gradientUnits="userSpaceOnUse"
       x1="42"
       y1="118.03125"
       x2="72.138878"
       y2="5.551427" />
    <linearGradient
       inkscape:collect="always"
       xlink:href="#e"
       id="linearGradient888"
       gradientUnits="userSpaceOnUse"
       x1="42"
       y1="118.03125"
       x2="72.138878"
       y2="5.551427" />
  </defs>
  <sodipodi:namedview
     pagecolor="#ffffff"
     bordercolor="#666666"
     borderopacity="1"
     objecttolerance="10"
     gridtolerance="10"
     guidetolerance="10"
     inkscape:pageopacity="0"
     inkscape:pageshadow="2"
     inkscape:window-width="1366"
     inkscape:window-height="707"
     id="namedview73"
     showgrid="true"
     inkscape:zoom="3.6875"
     inkscape:cx="69.568522"
     inkscape:cy="72.952962"
     inkscape:window-x="0"
     inkscape:window-y="0"
     inkscape:window-maximized="1"
     inkscape:current-layer="svg71">
    <inkscape:grid
       type="xygrid"
       id="grid884"
       spacingx="4"
       spacingy="4"
       empspacing="1" />
  </sodipodi:namedview>
  <radialGradient
     id="a"
     cx="137.56522"
     cy="141.40741"
     gradientTransform="matrix(0,0.88307133,-0.9818182,0,126.83636,-4.816749)"
     gradientUnits="userSpaceOnUse"
     r="139.55859">
    <stop
       offset="0"
       stop-color="#cccdcf"
       id="stop2" />
    <stop
       offset=".11366145"
       stop-color="#e0e0e1"
       id="stop4" />
    <stop
       offset=".20296694"
       stop-color="#f2f2f2"
       id="stop6" />
    <stop
       offset=".2363"
       stop-color="#fafafa"
       id="stop8" />
    <stop
       offset=".2722"
       stop-color="#fff"
       id="stop10" />
    <stop
       offset=".5313"
       stop-color="#fafafa"
       id="stop12" />
    <stop
       offset=".8449"
       stop-color="#ebecec"
       id="stop14" />
    <stop
       offset="1"
       stop-color="#e1e2e3"
       id="stop16" />
  </radialGradient>
  <radialGradient
     id="b"
     cx="102"
     cy="112.3047"
     gradientTransform="matrix(0,0.90226854,-1,0,128,-6.045371)"
     gradientUnits="userSpaceOnUse"
     r="139.5585">
    <stop
       offset="0"
       stop-color="#fff"
       id="stop19" />
    <stop
       offset=".1737"
       stop-color="#f7f7f7"
       id="stop21" />
    <stop
       offset=".20990001"
       stop-color="#f1f1f1"
       id="stop23" />
    <stop
       offset=".2435"
       stop-color="#fafcfd"
       id="stop25" />
    <stop
       offset=".2722"
       stop-color="#fff"
       id="stop27" />
  </radialGradient>
  <filter
     id="c">
    <feGaussianBlur
       stdDeviation="1.0394514"
       id="feGaussianBlur30" />
  </filter>
  <filter
     id="d">
    <feGaussianBlur
       stdDeviation=".50063244"
       id="feGaussianBlur33" />
  </filter>
  <linearGradient
     id="e"
     gradientUnits="userSpaceOnUse"
     x1="42"
     x2="72.138878"
     y1="118.03125"
     y2="5.551427">
    <stop
       offset="0"
       stop-color="#084775"
       id="stop36" />
    <stop
       offset="1"
       stop-color="#084775"
       stop-opacity="0"
       id="stop38" />
  </linearGradient>
  <linearGradient
     gradientUnits="userSpaceOnUse"
     x1="52.126926"
     x2="52.126926"
     y1="-30.36201"
     y2="-142.433416"
     id="linearGradient45">
    <stop
       offset="0"
       stop-color="#403a3a"
       id="stop41" />
    <stop
       offset="1"
       stop-color="#6a5252"
       id="stop43" />
  </linearGradient>
  <filter
     id="f">
    <feGaussianBlur
       stdDeviation="1.2346784"
       id="feGaussianBlur47" />
  </filter>
  <clipPath
     id="g">
    <path
       d="m-23.029324-146.61201c-5.531616-.24083-10.64527 3.53552-12 8.96875-.000021.01042-.000021.02083 0 .03125l-2.8125 11.40625h-6.03125c-6.441349 0-11.84375 5.4024-11.84375 11.84375v8c0 5.84595 4.517586 10.626564 10.15625 11.5l-4.125 16.65625h-6.1875c-6.441349 0-11.84375 5.402402-11.84375 11.84375v8c0 5.890458 4.58168 10.71459 10.28125 11.53125l-.84375 3.4375c-1.553679 6.23113 2.382454 12.78725 8.625 14.34375l7.78125 1.9375c6.231123 1.55368 12.818494-2.3825 14.375-8.625.000021-.01042.000021-.02083 0-.03125l2.65625-10.75h14.65625l-.78125 3.125c-1.553681 6.23114 2.382455 12.78725 8.625 14.34375l7.78125 1.9375c6.213771 1.54936 12.804599-2.45209 14.34375-8.625.000021-.01042.000021-.02083 0-.03125l2.65625-10.75h9.6875c6.44135 0 11.84375-5.402396 11.84375-11.84375v-8c0-6.441353-5.4024-11.84375-11.84375-11.84375h-1.875l4.03125-16.3125h9.84375c6.44135 0 11.84375-5.402396 11.84375-11.84375v-8c0-6.44135-5.4024-11.84375-11.84375-11.84375h-2.03125l.9375-3.78125c1.55369-6.23115-2.3825-12.78724-8.625-14.34375l-7.78125-1.9375c-6.231121-1.55367-12.818487 2.38251-14.375 8.625-.000021.01042-.000021.02083 0 .03125l-2.8125 11.40625h-14.625l.9375-3.78125c1.571025-6.30072-2.431097-12.79157-8.65625-14.34375l-7.75-1.9375c-.677154-.16884-1.43324-.30275-2.375-.34375zm10.03125 52.09375h14.625l-4.03125 16.3125h-14.625z"
       id="path50" />
  </clipPath>
  <path
     d="m 26.84,12.862069 0.04082,104.275861 84.66202,0.0272 V 12.862099 H 26.840004 Z"
     transform="matrix(0,0.93986309,-1.0357143,0,131.32153,-15.030463)"
     id="path53"
     inkscape:connector-curvature="0"
     style="opacity:0.30684904;filter:url(#c)"
     sodipodi:nodetypes="cccccc" />
  <path
     d="M 28.759999,14.793205 V 115.207 H 109.62284 V 14.793205 Z"
     transform="matrix(0,0.93986309,-1.0357143,0,131.32153,-15.030463)"
     id="path55"
     inkscape:connector-curvature="0"
     style="opacity:0.89589;filter:url(#d)"
     sodipodi:nodetypes="ccccc" />
  <path
     d="m 26.84,13.827586 0.04082,103.310344 84.66202,0.0272 V 13.827616 H 26.840004 Z"
     transform="matrix(0,0.93986309,-1.0357143,0,131.32153,-15.030463)"
     id="path57"
     inkscape:connector-curvature="0"
     style="opacity:0.69800002;filter:url(#c)"
     sodipodi:nodetypes="cccccc" />
  <path
     d="M 116,12 H 12 v 76 h 104 z"
     id="path59"
     style="fill:url(#b);stroke-width:0.94987798"
     inkscape:connector-curvature="0"
     sodipodi:nodetypes="ccccc" />
  <path
     d="m 112,16.492145 c 0,-0.486572 -0.44084,-0.883071 -0.98182,-0.883071 H 16.98182 C 16.43985,15.609074 16,16.005573 16,16.492145 l -0.0242,67.27913 c 0,0.320883 0.33797,0.619651 0.69414,0.619651 h 94.34824 c 0.54098,0 0.98182,-0.395618 0.98182,-0.883068 z"
     id="path61"
     style="fill:url(#a);stroke-width:0.94987798"
     inkscape:connector-curvature="0"
     sodipodi:nodetypes="sssccssss" />
  <path
     clip-path="url(#g)"
     d="m 22.5,42.5 -2.25,15.5 14,-11.75 z m 21.75,0.5 12,14.625 11,-0.125 17.25,-12.75 z m 50,2 9.25,12.375 h 6 L 114,46 Z M 10.75,91.75 8.5,105.125 23,94.25 Z m 91,1.25 -18,1 7.75,11.375 7.25,-0.5 z m -31,0.5 -34.5,0.25 8.75,12.8125 10.3125,-0.9375 z"
     transform="matrix(0,0.90226854,-1,0,197.84476,310.26992)"
     id="path63"
     style="fill:url(#linearGradient886);fill-rule:evenodd;filter:url(#f)"
     inkscape:connector-curvature="0"
     sodipodi:nodetypes="cccccccccccccccccccccccccccc" />
  <path
     clip-path="url(#g)"
     d="M 22.5,42.5 13.837695,55.249263 20.25,58 34.25,46.25 Z M 94.25,45 103.5,57.375 121.52082,58.43566 114,46 Z M 10.75,91.75 0.54504873,104.41789 23,94.25 Z m 91,1.25 -18,1 7.75,11.375 17.14949,0.38388 z"
     transform="matrix(0,0.90226854,-1,0,197.84476,310.26992)"
     id="path65"
     style="opacity:0.45049504;fill:url(#linearGradient888);fill-rule:evenodd;filter:url(#f)"
     inkscape:connector-curvature="0"
     sodipodi:nodetypes="ccccccccccccccccccc" />
  <path
     d="m12 104.12122h100v11.878788h-100z"
     fill="#59f"
     fill-opacity=".968627"
     id="path69"
     style="fill:#258aff;fill-opacity:1" />
</svg>
